X:249
T:Rustic Reel
B:Kerr's Merry Melodies Bk.1, p29
Z:Nigel Gatherer
M:6/8
L:1/8
K:D
A|f2 e dcB|A2 F D2 E|FGF FED|F3 E2 A|f2 e dcB|A2 F D2 E|
FGF EDE|D3 D2||A|g2 e f2 d|c2 d ecA|g2 e f2 d|cec A2 A|
g2 e f2 d|cde fga|ece dcB|A2 B cde||f2 e dcB|A2 F D2 E|
FGF FED|F3 E2 A|f2 e dcB|A2 F D2 E|FGF EDE|D3 D2||
<end>
<start>
